X: 16252
T: Greig's Pipes
R: reel
M: 4/4
K: Gmajor
B2 BB BAGA|B2 GB AGE(D|D)B BB BAGB|AcBG AGED|
(AB) BB BAGA|!breath! B2 GB AGED|Beed cddz|AGB z AGED||
DGGG GGBG|GGB z AGED|DGGG GGGB|!breath!d2 Ad BGGE|
DGGG AGAB|DGB z AGED|DGGG GGGB|!breath!d2 Ad Bgge||
dG (3Bcd eggg|!breath!d2 BG AGED|D2 Bd eggg|!breath!a2 ab aged|
dG (3Bcd eggg|!breath!d2 BG AGED|D2 Bd eggg|!breath!a2 ab aged||

